img/icon-input-req.svg

<svg width="6" height="7" viewBox="0 0 6 7" fill="none" xmlns="http://www.w3.org/2000/svg">
<path d="M3.51881 6.02797L3.4338 4.15797L4.9978 5.16097L5.5418 4.24297L3.89281 3.39297L5.5418 2.54297L4.9978 1.60797L3.4338 2.61097L3.51881 0.740967H2.4478L2.5328 2.61097L0.951805 1.60797L0.424805 2.54297L2.0738 3.39297L0.424805 4.24297L0.951805 5.16097L2.5328 4.15797L2.4478 6.02797H3.51881Z" fill="#FE7865"/>
</svg>

<svg width="6" height="7" fill="none" xmlns="http://www.w3.org/2000/svg"><path d="M3.519 6.028l-.085-1.87 1.564 1.003.544-.918-1.65-.85 1.65-.85-.544-.935-1.564 1.003.085-1.87H2.448l.085 1.87L.952 1.608l-.527.935 1.649.85-1.65.85.528.918 1.58-1.003-.084 1.87h1.07z" fill="#FE7865"/></svg>
